assets/telegram.svg

<svg viewBox="0 0 96 96" xmlns="http://www.w3.org/2000/svg"><path d="m25.815 46.581s19-7.7976 25.59-10.543c2.5261-1.0982 11.092-4.6128 11.092-4.6128s3.9538-1.5374 3.6243 2.1966c-0.1099 1.5376-0.9885 6.919-1.867 12.74-1.318 8.237-2.7458 17.243-2.7458 17.243s-0.2196 2.5261-2.0866 2.9654c-1.867 0.4392-4.9423-1.5375-5.4913-1.9769-0.4395-0.3294-8.2371-5.2717-11.092-7.6879-0.7688-0.6589-1.6474-1.9768 0.1097-3.5144 3.9538-3.6243 8.6763-8.1271 11.532-10.983 1.318-1.318 2.6358-4.3931-2.8555-0.6591-7.7976 5.3816-15.485 10.434-15.485 10.434s-1.7573 1.0982-5.0521 0.1098c-3.2949-0.9883-7.1388-2.3063-7.1388-2.3063s-2.6357-1.6474 1.8672-3.4047z" fill="#0F0D1A"/></svg>

<svg width="96" height="96" viewBox="0 0 96 96" fill="none" xmlns="http://www.w3.org/2000/svg">
<path d="M25.8151 46.5807C25.8151 46.5807 44.8151 38.7831 51.4046 36.0374C53.9307 34.9392 62.4971 31.4246 62.4971 31.4246C62.4971 31.4246 66.4509 29.8872 66.1214 33.6212C66.0115 35.1588 65.1329 40.5402 64.2544 46.3611C62.9364 54.5981 61.5086 63.6038 61.5086 63.6038C61.5086 63.6038 61.289 66.1299 59.422 66.5692C57.555 67.0084 54.4797 65.0317 53.9307 64.5923C53.4912 64.2629 45.6936 59.3206 42.8382 56.9044C42.0694 56.2455 41.1908 54.9276 42.9479 53.39C46.9017 49.7657 51.6242 45.2629 54.4797 42.4074C55.7977 41.0894 57.1155 38.0143 51.6242 41.7483C43.8266 47.1299 36.1388 52.1819 36.1388 52.1819C36.1388 52.1819 34.3815 53.2801 31.0867 52.2917C27.7918 51.3034 23.9479 49.9854 23.9479 49.9854C23.9479 49.9854 21.3122 48.338 25.8151 46.5807V46.5807Z" fill="#0F0D1A"/>
</svg>
